X: 89
T:Old Summer Carol
M:2/4
L:1/8
Q:220
S:Michael Raven (Hynde Horn)
A:Wales
Z:brian_martin12345@yahoo.com
K:G
G>G GG|FA G>A|BB B>A|GBA2|d>c BB|cB/A/ BB|BE EG|A>GG2|
dd d>c|Bd e>d|ed B>A|GBA2|d>c BB|cB/A/ BB/B/|BE EG|A>GG2||

